src/icons/instagram.svg

<svg width="64" height="64" viewBox="0 0 64 64" fill="none" xmlns="http://www.w3.org/2000/svg">
<g clip-path="url(#clip0)">
<path d="M4.00118 4.35447C-1.02815 9.57847 0.00118333 15.1278 0.00118333 31.9865C0.00118333 45.9865 -2.44149 60.0211 10.3425 63.3251C14.3345 64.3518 49.7052 64.3518 53.6919 63.3198C59.0145 61.9465 63.3452 57.6291 63.9372 50.1011C64.0199 49.0505 64.0199 14.9411 63.9345 13.8691C63.3052 5.85047 58.3692 1.22913 51.8652 0.293132C50.3745 0.0771316 50.0759 0.0131315 42.4279 -0.000201799C15.2999 0.0131315 9.35318 -1.19487 4.00118 4.35447Z" fill="#333333"/>
<path d="M31.9954 8.37046C22.3128 8.37046 13.1182 7.50915 9.60614 16.5225C8.15547 20.2451 8.36614 25.0798 8.36614 32.0025C8.36614 38.0771 8.17147 43.7865 9.60614 47.4798C13.1102 56.4985 22.3794 55.6345 31.9902 55.6345C41.2622 55.6345 50.8222 56.5998 54.3768 47.4798C55.8302 43.7198 55.6168 38.9571 55.6168 32.0025C55.6168 22.7705 56.1262 16.8105 51.6488 12.3358C47.1154 7.80246 40.9848 8.37046 31.9848 8.37046H31.9954ZM29.8782 12.6291C50.0754 12.5971 52.6462 10.3518 51.2274 41.5438C50.7234 52.5758 42.3234 51.3651 31.9982 51.3651C13.1714 51.3651 12.6302 50.8265 12.6302 31.9918C12.6302 12.9385 14.1234 12.6398 29.8782 12.6238V12.6291ZM44.6088 16.5518C43.0434 16.5518 41.7742 17.8211 41.7742 19.3865C41.7742 20.9518 43.0434 22.2211 44.6088 22.2211C46.1742 22.2211 47.4434 20.9518 47.4434 19.3865C47.4434 17.8211 46.1742 16.5518 44.6088 16.5518ZM31.9954 19.8665C25.2942 19.8665 19.8622 25.3011 19.8622 32.0025C19.8622 38.7038 25.2942 44.1358 31.9954 44.1358C38.6968 44.1358 44.1262 38.7038 44.1262 32.0025C44.1262 25.3011 38.6968 19.8665 31.9954 19.8665ZM31.9954 24.1251C42.4088 24.1251 42.4222 39.8798 31.9954 39.8798C21.5848 39.8798 21.5688 24.1251 31.9954 24.1251Z" fill="#F7C003"/>
</g>
<defs>
<clipPath id="clip0">
<rect width="64" height="64" fill="white"/>
</clipPath>
</defs>
</svg>

<svg xmlns="http://www.w3.org/2000/svg" fill="none" viewBox="0 0 64 64"><defs/><g clip-path="url(#clip0)"><path fill="#333" d="M4 4.35C-1.03 9.58 0 15.13 0 32c0 14-2.44 28.03 10.34 31.34 4 1.02 39.37 1.02 43.35-.01 5.32-1.37 9.66-5.7 10.25-13.22.08-1.05.08-35.16 0-36.23C63.3 5.85 58.36 1.23 51.86.29c-1.5-.21-1.8-.28-9.44-.29C15.3.01 9.35-1.2 4 4.35z"/><path fill="#F7C003" d="M32 8.37c-9.69 0-18.88-.86-22.4 8.15C8.17 20.25 8.38 25.08 8.38 32c0 6.08-.2 11.79 1.24 15.48 3.5 9.02 12.77 8.15 22.38 8.15 9.27 0 18.83.97 22.39-8.15 1.45-3.76 1.24-8.52 1.24-15.48 0-9.23.5-15.19-3.97-19.66-4.53-4.54-10.67-3.97-19.67-3.97H32zm-2.12 4.26c20.2-.03 22.77-2.28 21.35 28.91-.5 11.04-8.9 9.83-19.23 9.83-18.83 0-19.37-.54-19.37-19.38 0-19.05 1.5-19.35 17.25-19.37zm14.73 3.92a2.83 2.83 0 100 5.67 2.83 2.83 0 000-5.67zM32 19.87a12.14 12.14 0 100 24.27 12.14 12.14 0 000-24.27zm0 4.26c10.4 0 10.42 15.75 0 15.75s-10.43-15.75 0-15.75z"/></g><defs><clipPath id="clip0"><path fill="#fff" d="M0 0h64v64H0z"/></clipPath></defs></svg>
